X:1
T:Title
%%score 1 2
L:1/8
Q:1/4=80
M:4/8
K:D
V:1 treble nm="Grand Piano, Soprano"
V:2 bass nm="Choir Pad, Going Home at Last"
V:1
 [DF][DF][DF][DF]- | [DF]/[DF]/[DF] [DF]2 | [DF][DA]-[DA]/[DA]/[CG] | [DF] [CE]3 | %4
w: By~Edmund~Simon~Lorenz * * *||||
 [CE][CE][CE][CE]- | [CE]/[CE]/[CE] [EG]2 | [GB][FA]/[FA]/-[FA][FA]- | [FA]/[EG]/ [DF]3 | %8
w: ||||
 z [DF]/[FA]/-[FA][FA]- | [FA]/[GB]/ [FA]3 | z G/[GB]/-[GB][GB]- | [GB]/[Gc]/ [GB]3 | %12
w: ||||
 [GB][Gd]-[Gd]/[Gc]/[Gd]- | [Gd]/[GB]/[GB] [FA]2 | [Dd][DF]/[DF]/-[DF][CE]- | [CE]/[CE]/ D3- | %16
w: ||||
 D3 z |] %17
w: |
V:2
 [D,A,][D,A,][D,A,][D,A,]- | [D,A,]/[D,A,]/[D,A,] [D,A,]2 | [D,A,][F,A,]-[F,A,]/[F,A,]/[E,A,] | %3
 [D,A,] [A,,A,]3 | [A,,A,][A,,A,][A,,A,][A,,A,]- | [A,,A,]/[A,,A,]/[A,,A,] [A,,A,]2 | %6
 [A,,A,][A,,A,]/[A,,A,]/-[A,,A,][A,,A,]- | [A,,A,]/[A,,A,]/ [D,A,]3 | z [D,A,]/[D,D]/-[D,D][D,D]- | %9
 [D,D]/[D,D]/ [D,D]3 | z [G,B,]/[G,D]/-[G,D][G,D]- | [G,D]/[G,E]/ [G,D]3 | %12
 [G,D][G,B,]-[G,B,]/[G,A,]/[G,B,]- | [G,B,]/[G,D]/[D,D] [D,D]2 | [F,A,]A,/A,/-A,[A,,A,]- | %15
 [A,,A,]/[A,,G,]/ [D,F,]3- | [D,F,]3 z |] %17

